lib/flags/s/FK.svg

<svg xmlns="http://www.w3.org/2000/svg" fill="none" viewBox="0 0 16 12"><mask id="FK_svg__a" width="16" height="12" x="0" y="0" mask-type="alpha" maskUnits="userSpaceOnUse"><path fill="#fff" d="M0 0H16V12H0z"/></mask><g mask="url(#FK_svg__a)"><path fill="#2E42A5" fill-rule="evenodd" d="M0 0V12H16V0H0Z" clip-rule="evenodd"/><mask id="FK_svg__b" width="16" height="12" x="0" y="0" mask-type="alpha" maskUnits="userSpaceOnUse"><path fill="#fff" fill-rule="evenodd" d="M0 0V12H16V0H0Z" clip-rule="evenodd"/></mask><g mask="url(#FK_svg__b)"><mask id="FK_svg__c" width="9" height="7" x="0" y="0" mask-type="alpha" maskUnits="userSpaceOnUse"><path fill="#fff" d="M0 0H9V7H0z"/></mask><g mask="url(#FK_svg__c)"><path fill="#F7FCFF" d="M-1.00214 6.49993L0.978339 7.36853L9.04494 0.944391L10.0896 -0.346375L7.97176 -0.636686L4.68159 2.13166L2.03334 3.99688L-1.00214 6.49993Z"/><path fill="#F50100" d="M-0.731018 7.10849L0.277943 7.61255L9.71445 -0.466309H8.29775L-0.731018 7.10849Z"/><path fill="#F7FCFF" d="M10.0021 6.49993L8.02166 7.36853L-0.0449371 0.944391L-1.08959 -0.346375L1.02824 -0.636686L4.31841 2.13166L6.96666 3.99688L10.0021 6.49993Z"/><path fill="#F50100" d="M9.93457 6.93661L8.92561 7.44067L4.90745 3.9817L3.71615 3.59523L-1.1901 -0.342034H0.226597L5.13009 3.50178L6.43256 3.96519L9.93457 6.93661Z"/><mask id="FK_svg__d" width="11" height="9" x="-1" y="-1" fill="#000" maskUnits="userSpaceOnUse"><path fill="#fff" d="M-1-1H10V8H-1z"/><path fill-rule="evenodd" d="M4.99226 0H3.99226V3H0V4H3.99226V7H4.99226V4H9V3H4.99226V0Z" clip-rule="evenodd"/></mask><path fill="#F50100" fill-rule="evenodd" d="M4.99226 0H3.99226V3H0V4H3.99226V7H4.99226V4H9V3H4.99226V0Z" clip-rule="evenodd"/><path fill="#F7FCFF" d="M3.99226 0V-0.75H3.24226V0H3.99226ZM4.99226 0H5.74226V-0.75H4.99226V0ZM3.99226 3V3.75H4.74226V3H3.99226ZM0 3V2.25H-0.75V3H0ZM0 4H-0.75V4.75H0V4ZM3.99226 4H4.74226V3.25H3.99226V4ZM3.99226 7H3.24226V7.75H3.99226V7ZM4.99226 7V7.75H5.74226V7H4.99226ZM4.99226 4V3.25H4.24226V4H4.99226ZM9 4V4.75H9.75V4H9ZM9 3H9.75V2.25H9V3ZM4.99226 3H4.24226V3.75H4.99226V3ZM3.99226 0.75H4.99226V-0.75H3.99226V0.75ZM4.74226 3V0H3.24226V3H4.74226ZM0 3.75H3.99226V2.25H0V3.75ZM0.75 4V3H-0.75V4H0.75ZM3.99226 3.25H0V4.75H3.99226V3.25ZM4.74226 7V4H3.24226V7H4.74226ZM4.99226 6.25H3.99226V7.75H4.99226V6.25ZM4.24226 4V7H5.74226V4H4.24226ZM9 3.25H4.99226V4.75H9V3.25ZM8.25 3V4H9.75V3H8.25ZM4.99226 3.75H9V2.25H4.99226V3.75ZM4.24226 0V3H5.74226V0H4.24226Z" mask="url(#FK_svg__d)"/></g><path fill="#6DC2FF" stroke="#F7FCFF" stroke-width=".25" d="M12.9751 9.85701C12.4607 9.85701 12.1028 9.73558 11.848 9.52389C11.5921 9.31127 11.4243 8.99439 11.317 8.57217C11.2095 8.14923 11.1655 7.63174 11.1491 7.03057C11.1376 6.60804 11.1397 6.14957 11.142 5.6579C11.1428 5.48957 11.1436 5.31735 11.1439 5.14136H14.8518C14.918 6.34507 14.9417 7.51812 14.7061 8.3979C14.585 8.85 14.3983 9.21303 14.1239 9.46285C13.8521 9.7103 13.4831 9.85701 12.9751 9.85701Z"/><mask id="FK_svg__e" width="5" height="5" x="11" y="5" mask-type="alpha" maskUnits="userSpaceOnUse"><path fill="#fff" stroke="#fff" stroke-width=".25" d="M12.9751 9.85701C12.4607 9.85701 12.1028 9.73558 11.848 9.52389C11.5921 9.31127 11.4243 8.99439 11.317 8.57217C11.2095 8.14923 11.1655 7.63174 11.1491 7.03057C11.1376 6.60804 11.1397 6.14957 11.142 5.6579C11.1428 5.48957 11.1436 5.31735 11.1439 5.14136H14.8518C14.918 6.34507 14.9417 7.51812 14.7061 8.3979C14.585 8.85 14.3983 9.21303 14.1239 9.46285C13.8521 9.7103 13.4831 9.85701 12.9751 9.85701Z"/></mask><g mask="url(#FK_svg__e)"><path fill="#E1E5E8" fill-rule="evenodd" d="M12.2609 6.79354C12.2609 6.79354 12.0636 6.64759 11.979 6.41113C11.8944 6.17468 11.7269 5.54521 11.7269 5.49055C11.7269 5.43589 11.5041 5.49055 11.5041 5.49055C11.5041 5.49055 11.5072 5.22436 11.5913 5.22436C11.6754 5.22436 11.6785 4.97755 11.8825 5.0397C12.0865 5.10186 12.2469 5.32979 12.4548 5.32979C12.6627 5.32979 13.5317 5.39608 13.6714 5.39608C13.8111 5.39608 14.1793 5.69091 14.1793 5.9116C14.1793 6.13229 14.0789 6.46109 13.9999 6.46109C13.9209 6.46109 13.8215 6.6524 13.6714 6.58925C13.5212 6.52611 13.1628 6.39607 12.8417 6.46109C12.5206 6.52611 12.4548 6.48524 12.4548 6.58925C12.4548 6.69327 12.2609 6.79354 12.2609 6.79354Z" clip-rule="evenodd"/><path fill="#49801E" fill-rule="evenodd" d="M11.8 6.6394H14.3778L13.9338 7.21317H12.1124L11.8 6.6394Z" clip-rule="evenodd"/><path stroke="#fff" stroke-width=".533" d="M11.7664 9.14789C11.7664 9.14789 12.212 9.30724 12.3982 9.28787 12.6044 9.26642 12.7869 9.03137 12.9247 9.03137 13.0623 9.03137 13.3271 9.2665 13.5328 9.28787 13.7193 9.30725 14.083 9.14789 14.083 9.14789M11.2772 8.46817C11.4312 8.33772 11.7664 8.32819 11.7664 8.32819 11.7664 8.32819 12.2119 8.48754 12.3981 8.46817 12.6043 8.44672 12.7869 8.21167 12.9247 8.21167 13.0622 8.21167 13.3271 8.4468 13.5328 8.46817 13.7193 8.48754 14.0829 8.32819 14.0829 8.32819 14.0829 8.32819 14.2862 8.09966 14.5414 8.34097"/><path fill="#fff" d="M11.2304 7.76489L10.8932 7.35166C11.0254 7.24379 11.2474 7.13747 11.5714 7.01996L11.7287 7.01238C12.0647 7.09872 12.2893 7.13614 12.3716 7.12789C12.3987 7.12517 12.444 7.10313 12.5269 7.04817C12.7622 6.89211 12.785 6.87939 12.9247 6.87939C13.0524 6.87939 13.0787 6.89164 13.3456 7.03576C13.3951 7.06231 13.4137 7.07197 13.4405 7.08484C13.4969 7.11189 13.5372 7.12567 13.5594 7.12789C13.6235 7.13431 13.7525 7.10439 13.933 7.03174C14.1678 6.81835 14.4652 6.84045 14.721 7.07353C14.8917 7.22902 15.0287 7.35463 15.1321 7.45047L14.7696 7.84165C14.6674 7.747 14.5315 7.62234 14.3619 7.46778C14.2944 7.40633 14.3089 7.40672 14.2789 7.4392L14.1867 7.50401C13.9066 7.62228 13.6854 7.67651 13.5062 7.65857C13.4101 7.64894 13.3171 7.61718 13.2097 7.56564C13.1738 7.54838 13.1481 7.53506 13.0921 7.50503C12.9633 7.43547 12.9144 7.41273 12.9247 7.41273C12.9471 7.41273 12.916 7.43006 12.8217 7.49262C12.67 7.59327 12.5644 7.64457 12.4247 7.65857C12.2703 7.67404 12.0295 7.63681 11.6773 7.54947C11.4485 7.63599 11.2965 7.71093 11.2304 7.76489Z"/></g><path stroke="#B85F3C" stroke-width=".5" d="M11.4816 9.1969C11.4816 9.1969 11.9736 9.66813 11.6765 9.98742 11.3794 10.3067 11.1071 10.1213 11.1071 10.1213M14.5249 9.1969C14.5249 9.1969 14.0329 9.66813 14.33 9.98742 14.6271 10.3067 14.8995 10.1213 14.8995 10.1213"/><path stroke="#CB8B73" stroke-width=".5" d="M11.1603 9.57666C11.1603 9.57666 12.0079 10.3866 13.0499 10.3866C14.0919 10.3866 14.9304 9.76784 14.9304 9.76784"/></g></g></svg>

<svg xmlns="http://www.w3.org/2000/svg" fill="none" viewBox="0 0 16 12"><mask id="FK_svg__a" width="16" height="12" x="0" y="0" maskUnits="userSpaceOnUse"><path fill="#fff" d="M0 0h16v12H0z"/></mask><g mask="url(#FK_svg__a)"><path fill="#2E42A5" fill-rule="evenodd" d="M0 0v12h16V0H0z" clip-rule="evenodd"/><mask id="FK_svg__b" width="16" height="12" x="0" y="0" maskUnits="userSpaceOnUse"><path fill="#fff" fill-rule="evenodd" d="M0 0v12h16V0H0z" clip-rule="evenodd"/></mask><g mask="url(#FK_svg__b)"><mask id="FK_svg__c" width="9" height="7" x="0" y="0" maskUnits="userSpaceOnUse"><path fill="#fff" d="M0 0h9v7H0z"/></mask><g mask="url(#FK_svg__c)"><path fill="#F7FCFF" d="M-1.002 6.5l1.98.869L9.045.944l1.045-1.29-2.118-.29-3.29 2.768-2.649 1.865L-1.002 6.5z"/><path fill="#F50100" d="M-.731 7.108l1.009.505 9.437-8.08H8.298L-.731 7.109z"/><path fill="#F7FCFF" d="M10.002 6.5l-1.98.869L-.045.944-1.09-.346l2.118-.29 3.29 2.768 2.649 1.865L10.002 6.5z"/><path fill="#F50100" d="M9.935 6.937l-1.01.504-4.018-3.46-1.19-.386L-1.19-.342H.227L5.13 3.502l1.303.463 3.502 2.972z"/><mask id="FK_svg__d" width="11" height="9" x="-1" y="-1" fill="#000" maskUnits="userSpaceOnUse"><path fill="#fff" d="M-1-1h11v9H-1z"/><path fill-rule="evenodd" d="M4.992 0h-1v3H0v1h3.992v3h1V4H9V3H4.992V0z" clip-rule="evenodd"/></mask><path fill="#F50100" fill-rule="evenodd" d="M4.992 0h-1v3H0v1h3.992v3h1V4H9V3H4.992V0z" clip-rule="evenodd"/><path fill="#F7FCFF" d="M3.992 0v-.75h-.75V0h.75zm1 0h.75v-.75h-.75V0zm-1 3v.75h.75V3h-.75zM0 3v-.75h-.75V3H0zm0 1h-.75v.75H0V4zm3.992 0h.75v-.75h-.75V4zm0 3h-.75v.75h.75V7zm1 0v.75h.75V7h-.75zm0-3v-.75h-.75V4h.75zM9 4v.75h.75V4H9zm0-1h.75v-.75H9V3zM4.992 3h-.75v.75h.75V3zm-1-2.25h1v-1.5h-1v1.5zM4.742 3V0h-1.5v3h1.5zM0 3.75h3.992v-1.5H0v1.5zM.75 4V3h-1.5v1h1.5zm3.242-.75H0v1.5h3.992v-1.5zM4.742 7V4h-1.5v3h1.5zm.25-.75h-1v1.5h1v-1.5zM4.242 4v3h1.5V4h-1.5zM9 3.25H4.992v1.5H9v-1.5zM8.25 3v1h1.5V3h-1.5zm-3.258.75H9v-1.5H4.992v1.5zM4.242 0v3h1.5V0h-1.5z" mask="url(#FK_svg__d)"/></g><path fill="#6DC2FF" stroke="#F7FCFF" stroke-width=".25" d="M12.975 9.857c-.514 0-.872-.121-1.127-.333-.256-.213-.424-.53-.531-.952-.107-.423-.151-.94-.168-1.541-.011-.423-.01-.881-.007-1.373l.002-.517h3.708c.066 1.204.09 2.377-.146 3.257-.12.452-.308.815-.582 1.065-.272.247-.64.394-1.149.394z"/><mask id="FK_svg__e" width="5" height="5" x="11" y="5" maskUnits="userSpaceOnUse"><path fill="#fff" stroke="#fff" stroke-width=".25" d="M12.975 9.857c-.514 0-.872-.121-1.127-.333-.256-.213-.424-.53-.531-.952-.107-.423-.151-.94-.168-1.541-.011-.423-.01-.881-.007-1.373l.002-.517h3.708c.066 1.204.09 2.377-.146 3.257-.12.452-.308.815-.582 1.065-.272.247-.64.394-1.149.394z"/></mask><g mask="url(#FK_svg__e)"><path fill="#E1E5E8" fill-rule="evenodd" d="M12.261 6.794s-.197-.146-.282-.383a8.826 8.826 0 01-.252-.92c0-.055-.223 0-.223 0s.003-.267.088-.267c.083 0 .087-.246.29-.184.205.062.365.29.573.29.208 0 1.077.066 1.216.066.14 0 .508.295.508.516 0 .22-.1.55-.179.55-.079 0-.178.19-.329.127-.15-.063-.508-.193-.83-.128-.32.065-.386.024-.386.128 0 .104-.194.205-.194.205z" clip-rule="evenodd"/><path fill="#49801E" fill-rule="evenodd" d="M11.8 6.64h2.578l-.444.573h-1.821L11.8 6.64z" clip-rule="evenodd"/><path stroke="#fff" stroke-width=".533" d="M11.767 9.148s.445.16.631.14c.207-.022.39-.257.527-.257s.402.235.608.257c.186.02.55-.14.55-.14m-2.806-.68c.154-.13.49-.14.49-.14s.445.16.631.14c.207-.021.39-.256.527-.256s.402.235.608.256c.186.02.55-.14.55-.14s.203-.228.459.013"/><path fill="#fff" d="M11.23 7.765l-.337-.413c.132-.108.354-.215.679-.332l.157-.008c.336.087.56.124.643.116a.44.44 0 00.155-.08c.235-.156.258-.169.398-.169.127 0 .154.013.42.157l.096.049c.056.027.096.04.118.043.065.006.194-.024.374-.096.235-.214.532-.192.788.042.17.155.308.28.411.376l-.362.392a40.94 40.94 0 00-.408-.374c-.068-.062-.053-.061-.083-.029l-.092.065c-.28.118-.502.173-.68.155a.883.883 0 01-.297-.093 2.674 2.674 0 01-.118-.061c-.129-.07-.178-.092-.167-.092.022 0-.009.017-.103.08-.152.1-.257.152-.397.166-.155.015-.395-.022-.748-.11-.228.087-.38.162-.447.216z"/></g><path stroke="#B85F3C" stroke-width=".5" d="M11.482 9.197s.492.471.195.79c-.298.32-.57.134-.57.134m3.418-.924s-.492.471-.195.79c.297.32.57.134.57.134"/><path stroke="#CB8B73" stroke-width=".5" d="M11.16 9.577s.848.81 1.89.81c1.042 0 1.88-.62 1.88-.62"/></g></g></svg>
